packages/core/src/svgs/tokens/branded/TROY.svg

<svg width="24" height="24" viewBox="0 0 24 24" fill="none" xmlns="http://www.w3.org/2000/svg">
<path d="M17.7446 10.0767V11.3957C17.7616 11.6128 17.9105 12 18.3999 12H19.6594V13.9574C19.6594 14.0468 19.7276 14.1277 19.8722 14.1277C20.034 14.1277 20.085 14.0255 20.085 13.9574V12H21.3744C21.543 11.9924 21.702 11.9199 21.8186 11.7979C21.9352 11.6758 22.0001 11.5135 21.9999 11.3447V10.0767C21.9999 9.97875 21.9233 9.87231 21.7914 9.87231C21.651 9.87231 21.5744 9.97448 21.5744 10.0767V11.2851C21.5744 11.3745 21.4637 11.5575 21.251 11.5744C21.1067 11.5831 20.2737 11.58 19.495 11.5771C19.1254 11.5758 18.7678 11.5744 18.502 11.5744C18.4127 11.5575 18.1786 11.4808 18.1701 11.2851C18.1616 11.0894 18.1659 10.4383 18.1701 10.0767C18.1701 10.0085 18.1488 9.87231 17.9574 9.87231C17.7659 9.87231 17.7446 10.0085 17.7446 10.0767Z" fill="#82DEFF"/>
<path fill-rule="evenodd" clip-rule="evenodd" d="M13.3531 9.87231H16.1531C16.468 9.87231 16.8935 10.0724 16.8935 10.6043V13.349C16.8935 13.6298 16.7063 14.1277 16.1531 14.1277H13.3531C13.1105 14.1277 12.6467 13.8085 12.6425 13.349C12.6366 13.031 12.6388 12.1856 12.6408 11.4552C12.6417 11.1298 12.6425 10.8272 12.6425 10.6043C12.6467 10.3617 12.7999 9.87231 13.3531 9.87231ZM13.566 10.2981H16.017C16.2639 10.2981 16.4681 10.4044 16.4681 10.83V13.2342C16.4681 13.4597 16.4255 13.7022 15.983 13.7022H13.5277C13.3319 13.7022 13.0681 13.63 13.0681 13.264C13.0622 13.0053 13.0646 12.1304 13.0666 11.4351C13.0674 11.1466 13.0681 10.889 13.0681 10.7193C13.0724 10.5236 13.1192 10.2981 13.566 10.2981Z" fill="#82DEFF"/>
<path d="M7.53189 10.4383V13.8894C7.53189 14.0256 7.58294 14.1277 7.74465 14.1277C7.92763 14.1277 7.95741 13.9873 7.95741 13.8894V10.5873C7.95741 10.3873 8.09358 10.2937 8.1489 10.2979H11.0084C11.2553 10.2979 11.3616 10.5064 11.3616 10.5575C11.3616 10.8129 11.3701 11.1065 11.3616 11.3107C11.3532 11.5235 11.1489 11.583 11.0935 11.5745H9.82123C9.7574 11.5745 9.60421 11.583 9.53187 11.6979C9.45953 11.8128 9.52336 11.9489 9.56592 12.0001L11.3616 14.0001C11.4468 14.0852 11.6468 14.1872 11.7447 14.0426C11.8467 13.9022 11.7149 13.7745 11.634 13.6851L10.1702 12.0001H11.1914C11.3395 11.9932 11.4804 11.9344 11.5893 11.8341C11.6982 11.7337 11.7683 11.598 11.7872 11.4511V10.515C11.7745 10.0128 11.3489 9.87664 11.1447 9.87238H8.1489C7.69358 9.87238 7.51061 10.2384 7.53614 10.4383H7.53189ZM6.41274 9.87238H2.21702C2.15318 9.87238 2 9.91497 2 10.0894C2 10.2256 2.14468 10.2809 2.21702 10.2979H4.12764V13.9362C4.12764 14.0213 4.20849 14.1277 4.34041 14.1277C4.47658 14.1277 4.55318 14.0383 4.55318 13.9362V10.2979H6.41274C6.5021 10.3022 6.68082 10.2894 6.68082 10.098C6.68082 9.9107 6.5021 9.87664 6.41274 9.87238Z" fill="#82DEFF"/>
</svg>

<svg xmlns="http://www.w3.org/2000/svg" width="24" height="24" fill="none" viewBox="0 0 24 24">
    <path fill="#82DEFF" d="M17.745 10.077v1.319c.017.217.165.604.655.604h1.26v1.957c0 .09.068.17.212.17.162 0 .213-.102.213-.17V12h1.29a.655.655 0 0 0 .625-.655v-1.268a.205.205 0 0 0-.209-.205c-.14 0-.217.102-.217.205v1.208c0 .09-.11.272-.323.29a81 81 0 0 1-1.756.002l-.993-.003c-.09-.017-.323-.093-.332-.289a38 38 0 0 1 0-1.208c0-.069-.021-.205-.213-.205-.191 0-.212.136-.212.205"/>
    <path fill="#82DEFF" fill-rule="evenodd" d="M13.353 9.872h2.8c.315 0 .74.2.74.732v2.745c0 .28-.187.779-.74.779h-2.8c-.242 0-.706-.32-.71-.779a141 141 0 0 1-.002-1.894l.002-.85c.004-.243.157-.733.71-.733m.213.426h2.451c.247 0 .451.106.451.532v2.404c0 .226-.043.468-.485.468h-2.455c-.196 0-.46-.072-.46-.438-.006-.259-.003-1.134-.001-1.829l.001-.716c.004-.195.051-.42.498-.42" clip-rule="evenodd"/>
    <path fill="#82DEFF" d="M7.532 10.438v3.451c0 .137.05.239.213.239.183 0 .212-.14.212-.239v-3.302c0-.2.137-.293.192-.29h2.86c.246 0 .353.21.353.26 0 .256.008.55 0 .754a.27.27 0 0 1-.268.264H9.82c-.064 0-.217.008-.29.123-.071.115-.008.25.035.302l1.796 2c.085.085.285.187.383.043.102-.14-.03-.268-.111-.358L10.17 12h1.021a.63.63 0 0 0 .596-.549v-.936c-.013-.502-.438-.638-.642-.643H8.149c-.455 0-.638.366-.613.566zm-1.12-.566H2.218c-.064 0-.217.043-.217.217 0 .137.145.192.217.209h1.91v3.638c0 .085.081.192.213.192.137 0 .213-.09.213-.192v-3.638h1.86c.09.004.268-.009.268-.2 0-.187-.179-.221-.268-.226"/>
</svg>
